src/16/actions/fork.svg

<svg xmlns="http://www.w3.org/2000/svg" width="16" height="16" viewBox="0 0 16 16">
 <defs>
  <style id="current-color-scheme" type="text/css">
   .ColorScheme-Text { color:#565656; } .ColorScheme-Highlight { color:#5294e2; }
  </style>
 </defs>
 <path style="fill:currentColor" class="ColorScheme-Text" d="M 2.8398438 1.0058594 C 2.5588138 1.0495894 1.9960938 1.2398731 1.9960938 1.9394531 L 1.9960938 14.066406 C 1.9960938 14.999186 2.9960938 15 2.9960938 15 L 12.986328 15 C 13.985538 15 13.986328 14.066406 13.986328 14.066406 C 14.005128 14.023396 13.991328 7.1141812 13.986328 4.7382812 L 9.9902344 1.0058594 L 2.9960938 1.0058594 C 2.9960938 1.0058594 2.9335938 0.99130938 2.8398438 1.0058594 z M 8.9960938 5 L 8.296875 7.0996094 L 10.996094 8 L 6.9960938 11 L 7.6953125 8.9003906 L 4.9960938 8 L 8.9960938 5 z"/>
</svg>

<svg xmlns="http://www.w3.org/2000/svg" width="16" height="16"><defs><style id="current-color-scheme" type="text/css"></style></defs><path d="M2.84 1.006c-.281.044-.844.234-.844.933v12.127c0 .933 1 .934 1 .934h9.99c1 0 1-.934 1-.934.02-.043.005-6.952 0-9.328L9.99 1.006H2.996s-.062-.015-.156 0zM8.996 5l-.7 2.1 2.7.9-4 3 .7-2.1-2.7-.9 4-3z" fill="currentColor" color="#565656"/></svg>
